packages/icons/src/eye-slash-stripes.svg

<svg width="24" height="24" viewBox="0 0 24 24" fill="none" xmlns="http://www.w3.org/2000/svg">
<path fill-rule="evenodd" clip-rule="evenodd" d="M14.649 11.85L16.099 13.3C16.2324 13.0167 16.3324 12.7292 16.399 12.4375C16.4657 12.1458 16.499 11.8333 16.499 11.5C16.499 10.25 16.0615 9.18749 15.1865 8.31249C14.3115 7.43749 13.249 6.99999 11.999 6.99999C11.6657 6.99999 11.3532 7.03332 11.0615 7.09999C10.7699 7.16665 10.4824 7.26665 10.199 7.39999L11.649 8.84999C12.599 8.69999 13.374 8.96665 13.974 9.64999C14.574 10.3333 14.799 11.0667 14.649 11.85ZM17.849 15.05L19.299 16.45C20.1324 15.8167 20.8615 15.0792 21.4865 14.2375C22.1115 13.3958 22.6157 12.4833 22.999 11.5C22.1157 9.28332 20.6907 7.47916 18.724 6.08749C16.7574 4.69582 14.5157 3.99999 11.999 3.99999C11.2157 3.99999 10.4657 4.07082 9.74902 4.21249C9.03235 4.35415 8.33235 4.56665 7.64902 4.84999L9.19902 6.39999C9.64902 6.26665 10.1074 6.16665 10.574 6.09999C11.0407 6.03332 11.5157 5.99999 11.999 5.99999C13.9157 5.99999 15.6532 6.49582 17.2115 7.48749C18.7699 8.47916 19.9657 9.81666 20.799 11.5C20.449 12.2333 20.0282 12.8875 19.5365 13.4625C19.0449 14.0375 18.4824 14.5667 17.849 15.05ZM9.39814 18.7316L1.35487 10.6884C1.22726 10.9528 1.10865 11.2233 0.999023 11.5C1.88236 13.7167 3.30736 15.5208 5.27402 16.9125C6.53557 17.8052 7.91028 18.4116 9.39814 18.7316Z" fill="black"/>
<path d="M1.39902 4.19999L2.79902 2.79999L21.199 21.2L19.799 22.6L1.39902 4.19999Z" fill="black"/>
<path d="M2.14048 9.30639L3.37814 7.74405L14.396 18.7619C13.56 18.9331 12.6838 19.0094 11.8331 18.999L2.14048 9.30639Z" fill="black"/>
</svg>

<svg xmlns="http://www.w3.org/2000/svg" width="24" height="24" fill="none" viewBox="0 0 24 24">
  <path fill="#000" fill-rule="evenodd" d="m14.649 11.85 1.45 1.45c.133-.283.233-.57.3-.863.067-.291.1-.604.1-.937 0-1.25-.438-2.313-1.312-3.188C14.312 7.437 13.248 7 11.998 7a4.2 4.2 0 0 0-.938.1 4.286 4.286 0 0 0-.862.3l1.45 1.45c.95-.15 1.725.117 2.325.8.6.683.825 1.417.675 2.2Zm3.2 3.2 1.45 1.4a11.004 11.004 0 0 0 2.188-2.212 11.696 11.696 0 0 0 1.512-2.738c-.883-2.217-2.308-4.02-4.275-5.413C16.757 4.696 14.516 4 11.999 4a11.08 11.08 0 0 0-4.35.85l1.55 1.55a9.706 9.706 0 0 1 2.8-.4c1.917 0 3.654.496 5.213 1.487 1.558.992 2.754 2.33 3.587 4.013a8.898 8.898 0 0 1-1.262 1.963 10.942 10.942 0 0 1-1.688 1.587Zm-8.45 3.682-8.044-8.044c-.128.265-.246.535-.356.812.883 2.217 2.308 4.02 4.275 5.413a11.134 11.134 0 0 0 4.124 1.819Z" clip-rule="evenodd"/>
  <path fill="#000" d="m1.399 4.2 1.4-1.4 18.4 18.4-1.4 1.4-18.4-18.4Zm.741 5.106 1.238-1.562 11.018 11.018c-.836.171-1.712.247-2.563.237L2.14 9.306Z"/>
</svg>
